Origami/64x64/apps/preferences-desktop-notification-bell.svg

<svg width="64" height="64" version="1.1" viewBox="0 0 64 64" xmlns="http://www.w3.org/2000/svg">
 <path d="m10.74084 32.483884c0 11.248047-14.172659 19.516082-1.4172056 19.516082h45.352191c12.756053 0-1.416006-8.268035-1.416006-19.516082 0-12.544652-5.670024-26.484111-21.260089-26.484111-15.590066 0-21.26009 13.939459-21.26009 26.484111z" style="fill:#efb055"/>
 <path d="m22.000088 51.999966c1.477366 3.475015 5.373022 6.000025 10.000042 6.000025 4.627019 0 8.522635-2.52501 10.000042-6.000025h-20.000084z" style="fill:#ce903c"/>
 <path d="m32 6.000188c-15.60093 0-21.272352 13.938322-21.272352 26.484375-1e-6 6.928029-5.3653827 12.718424-6.5161741 16.148437-0.0724576-0.12211-0.1200821-0.2552-0.1563569-0.392578-0.1001 0.534812-0.0728328 1.006331 0.1563569 1.392578 1.1507914-3.430013 6.5161731-9.220408 6.5161741-16.148437 0-12.546053 5.671422-26.484375 21.272352-26.484375 15.600729 0 21.272354 13.938322 21.272353 26.484375 0 6.928029 5.365382 12.718424 6.516173 16.148437 0.229024-0.386247 0.256549-0.857766 0.156357-1.392578-0.036225 0.137378-0.083947 0.270468-0.156357 0.392578-1.150791-3.430013-6.516173-9.220408-6.516173-16.148437 1e-6 -12.546053-5.671624-26.484375-21.272353-26.484375z" style="fill:#ffffff;opacity:.1"/>
 <path d="m59.947616 50.240234c-0.295014 1.133029-1.755679 1.759766-5.251154 1.759766h-45.395316c-3.4908327 0-4.9517161-0.625424-5.2492-1.755859-0.3283883 1.756066 0.8394119 2.755859 5.2492 2.755859h45.395316c4.413231 0 5.581129-1.001537 5.251154-2.759766z" style="opacity:.2"/>
 <path d="m22 53c1.478006 3.476014 5.37398 6 10 6 4.626019 0 8.521993-2.523986 10-6h-0.513672c-1.748075 2.948348-5.31813 5-9.486328 5-4.168199 0-7.738254-2.051652-9.486328-5h-0.513672z" style="opacity:.2"/>
</svg>

<svg xmlns="http://www.w3.org/2000/svg" width="64" height="64" version="1.1" viewBox="0 0 64 64">
 <path style="fill:#efb055" d="m 10.74084,32.483884 c 0,11.248047 -14.1726592,19.516082 -1.4172056,19.516082 l 45.3521906,0 c 12.756053,0 -1.416006,-8.268035 -1.416006,-19.516082 0,-12.544652 -5.670024,-26.484111 -21.260089,-26.484111 -15.590066,0 -21.26009,13.939459 -21.26009,26.484111 z"/>
 <path style="fill:#ce903c" d="m 22.000088,51.999966 c 1.477366,3.475015 5.373022,6.000025 10.000042,6.000025 4.627019,0 8.522635,-2.52501 10.000042,-6.000025 l -20.000084,0 z"/>
 <path style="opacity:0.1;fill:#ffffff" d="m 32,6.000188 c -15.60093,0 -21.272352,13.938322 -21.272352,26.484375 C 10.727647,39.412592 5.3622653,45.202987 4.2114739,48.633 4.1390163,48.51089 4.0913918,48.3778 4.055117,48.240422 3.955017,48.775234 3.9822842,49.246753 4.2114739,49.633 5.3622653,46.202987 10.727647,40.412592 10.727648,33.484563 10.727648,20.93851 16.39907,7.000188 32,7.000188 c 15.600729,0 21.272354,13.938322 21.272353,26.484375 0,6.928029 5.365382,12.718424 6.516173,16.148437 0.229024,-0.386247 0.256549,-0.857766 0.156357,-1.392578 C 59.908658,48.3778 59.860936,48.51089 59.788526,48.633 58.637735,45.202987 53.272353,39.412592 53.272353,32.484563 53.272354,19.93851 47.600729,6.000188 32,6.000188 Z"/>
 <path style="opacity:0.2" d="M 59.947616,50.240234 C 59.652602,51.373263 58.191937,52 54.696462,52 L 9.3011464,52 C 5.8103137,52 4.3494303,51.374576 4.0519464,50.244141 3.7235581,52.000207 4.8913583,53 9.3011464,53 l 45.3953156,0 c 4.413231,0 5.581129,-1.001537 5.251154,-2.759766 z"/>
 <path style="opacity:0.2" d="m 22,53 c 1.478006,3.476014 5.37398,6 10,6 4.626019,0 8.521993,-2.523986 10,-6 l -0.513672,0 C 39.738253,55.948348 36.168198,58 32,58 27.831801,58 24.261746,55.948348 22.513672,53 L 22,53 Z"/>
</svg>
